X:1
T:Title
%%score { ( 1 3 ) | ( 2 4 ) }
L:1/8
Q:1/4=100
M:4/4
K:G
V:1 treble nm="Grand Piano"
V:3 treble 
V:2 bass 
V:4 bass 
V:1
 [B,DG]2 [B,DG]2 [G,DG]ABc | d4 B4 | A2 A2 AD[DG][DB] | A6 z2 | B2 G2 GABc | d4 B2 [FA][FA] | %6
w: H.~W.~Lanning * * * * *||||||
 [GB]2 [Gd]2 [Ge]2 ^c2 |[M:3/4] [Fd]6 |[M:1/4] d>c |[M:4/4] B4 [DG]2 z2 | A4 [DF]2 z2 | %11
w: |||||
 [B,G]2 [B,G]2 [DFA]2 [DGB]2 | [DFA]6 d>c | B4 [DG]2 z2 | c4 [CE]2 z2 | %15
w: ||||
 [G,B,D]2 [B,DG]2 [CDA]3 [CDF] | [B,DG]6 z2 |] %17
w: ||
V:2
 G,2 G,,2 B,,[D,F,D][G,D][G,A,D] | [G,B,D]4 [G,D]4 | %2
 [D,F,D]2 [D,F,D]2 [D,F,D][C,F,][B,,G,][G,,G,] | [D,F,D]6 z2 | %4
 [G,D]2 [G,B,D]2 [G,B,D][G,CD][G,DG][G,A,G] | [G,B,G]4 [G,DG]2[K:bass] [D,D][D,D] | %6
 [G,D]2 [G,B,]2 [E,B,]2 [A,G]2 |[M:3/4] [D,A,]6 |[M:1/4][K:treble] F>A |[M:4/4] G4 z4 | %10
 F4[K:bass] z4 | E,2 E,2 D,2 G,2 | D,6[K:treble] F>A | G4 z4 | E4[K:bass] z4 | D,2 D,2 D,3 D, | %16
 G,,6 z2 |] %17
V:3
 x8 | x8 | x8 | x8 | x8 | x8 | x8 |[M:3/4] x6 |[M:1/4] x2 |[M:4/4] z2 D>D B,B, d>c | %10
 z2 D>D A,A, [DGB]>[CFA] | x8 | x8 | z2 D>D B,B, A>B | z2 G,>G, G,G, [G,EG]>[G,CE] | x8 | x8 |] %17
V:4
 x8 | x8 | x8 | x8 | x8 | x6[K:bass] x2 | x8 |[M:3/4] x6 |[M:1/4][K:treble] x2 | %9
[M:4/4] z2 G,>G, G,G, B>A | z2[K:bass] D,>D, D,D, D,>D, | x8 | x6[K:treble] x2 | %13
 z2 G,>G, G,G, =F>F | z2[K:bass] C,>C, C,C, C,>C, | x8 | x8 |] %17

